!!!OTL: ES LIESS SICH EIN BAUR EIN PALTROCK SCHNEIDN
!!!ARE: Europa, Mitteleuropa, Deutschland
!!!SCT: E1717
!!!YEM: Copyright 1995, estate of Helmut Schaffrath.
**kern
*ICvox
*Ivox
*M4/4
*k[b-]
*F:
{4f
=1
4cc
4cc
4dd
4dd
=2
4cc
4cc
4a}
{4f
=3
4cc
4cc
4dd
4dd
=4
4cc
4cc
4a}
{4cc
=5
4b-
4a
4g
4cc
=6
4b-
4a
4g}
{4b-
=7
2a
2g
=8
2f
4r}
==
!!!AGN: Spott - Lied auf betruegerische Schneider
!!!ONB: ESAC (Essen Associative Code) Database: ERK3
!!!AMT: simple quadruple
!!!AIN: vox
!!!EED: Helmut Schaffrath
!!!EEV: 1.0
*-
